newspaper.svg

<svg fill="currentColor" viewBox="0 0 24 24"><path d="M20 11H4V8h16m0 7h-7v-2h7m0 6h-7v-2h7m-9 2H4v-6h7m9.33-8.33L18.67 3 17 4.67 15.33 3l-1.66 1.67L12 3l-1.67 1.67L8.67 3 7 4.67 5.33 3 3.67 4.67 2 3v16a2 2 0 0 0 2 2h16a2 2 0 0 0 2-2V3z"/></svg>

<svg  viewBox="0 0 24 24" fill="currentColor"><path  d="M20,11H4V8H20M20,15H13V13H20M20,19H13V17H20M11,19H4V13H11M20.33,4.67L18.67,3L17,4.67L15.33,3L13.67,4.67L12,3L10.33,4.67L8.67,3L7,4.67L5.33,3L3.67,4.67L2,3V19A2,2 0 0,0 4,21H20A2,2 0 0,0 22,19V3L20.33,4.67Z"/></svg>
